X: 1
T: Astley's
M: 4/4
L: 1/8
R: hornpipe
K: Gmaj
|: G>AB>c d>BA>G | a>gf>e e2dc | B>dB>G c>ec>A | B>dB>G G>FE>D | 
G>AB>c d>BA>G | a>gf>e e2dc | B>dB>G c>ec>A | G2A2 G4 :|
|: d>ef>g f>af>d | g>bg>d fafd | d>ef>g acec | B>dB>G F>AF>D |
B>dB>G c>ec>A | F>af>d Gbge | G>gf>e dcBA | G2A2 G4 :|
